X: 16
T:Brian Quinn's
M:2/2
L:1/8
C:Ed Reavy
R:Reel
N:Brian is now a very successful physician in Flemington,
N:New Jersey. He is also a brilliant piano accordionist and a great lover
N:of traditional music. He is the second of Lou's five boys (two girls),
N:and they all play music instruments.
Z:Joe Reavy
K:G
GF \
| DGGB dBGB | A=FFE FGAF | DGGB dBGE | =FGAF DGG^F |
| DGGB dBGB | A=FFE FGAF | GABc dgbg |1 fdcA (3Bcd :|2 fdcA BG ||
|: GA \
| (3Bcd gd Bdgd | BABd cA=FA | (3Bcd gdBdga | bgfa gfga |
| (3bag (3agf gfdc | (3Bcd =fd cA=FD | GABc (3dcB (3cBA |1 BdcA BG :|2 BdcA BG |]
